
p.push();

// one synth ///////////////////////////////////////

(
~one.ar(2);
~one.clock = p.clock;
~one.quant=2;
~one.fadeTime=4;
~one={
  var sig = Perlin3.ar([50,1,1/4]);
  Splay.ar(sig,0.5,0.25);
};
~one.play;
);
~one.stop(4);
~one.clear;
~one.pause;
~one.resume;
