

p.push();

// one synth ///////////////////////////////////////

(
~one.ar(2);
~one.clock = p.clock;
~one.quant=2;
~one.fadeTime=4;
~one={
  var sig = SinOsc.ar(MouseX.kr([1,0],[0,1]) ** 4 * 22000,MouseY.kr(0,2.pi));
  Splay.ar(sig,0.5,0.25);
};
~one.play;
);
~one.stop(4);
~one.clear;
~one.pause;
~one.resume;
