(
  ~master.quant=2;
  ~master.play;
  ~master.fadeTime = 0.01;
  ~master = {|wet=0.15,lp=3500,hp=250,len=10,rev = 3|
  var sig = In.ar([0,1]);
  var orig = sig;
  var fx;
  //fx = Limiter.ar(sig,0.95);
  sig = CompanderD.ar(sig,3/4,1/1.1,1/3);
  fx = LPF.ar(sig,lp);
  fx = HPF.ar(fx,hp);
  fx = DWGReverb3Band.ar(NumChannels.ar(fx,2),[2000,2010],1/len)/rev;
  sig = SelectX.ar(wet,[orig,fx]);
  sig = NumChannels.ar(sig,2);
  ReplaceOut.ar(0,sig);
  };
);
p.moveNodeToTail(\master);


p.push();
